X:1
T:Title
%%score ( 1 2 3 ) 4
L:1/8
Q:1/4=95
M:4/4
K:C
V:1 treble nm="Grand Piano, Soprano"
V:2 treble 
V:3 treble 
V:4 bass nm="Choir Pad, Sweeping Thru the Gatetes"
V:1
 [CE][DF][EG][EG] [EG][EG] [EG]2 | [EG][EG][FA][Ac] [Ac][FA] [EG]2 | %2
w: By~John~Lewis~Moore * * * * * *||
 [CE][DF][EG][EG] [EG][EG][Ec][Gc] | [FB][Ec] [Gd]6 | [Ec][Fd][Ge][Ge] [Gd][Fd] [Ec]2 | %5
w: |||
 [Ec][Gc][Fd][Fc] [Fc][FA] [EG]2 | [EG][EG] [FA]<[Ac] [Gc][Gd] [Ge]<[Ge] | [Gd]>[Fd] [Ec]6 | %8
w: |||
 z2 c6 | z2 c6 | z2 e6 | z2 d6 | z2 [Ec][Fd] [Ge][Ge][Gd][Fd] | [Ec]2 [Ec][Gc] [Fd][Fc][Fc][FA] | %14
w: ||||||
 [EG]2 [EG][EG] [FA]<[Ac] [Gc][Gd] | [Ge]<[Ge] [Gd]>[Fd] [Ec]4- | [Ec]4 z4 |] %17
w: |||
V:2
 x8 | x8 | x8 | x8 | x8 | x8 | x8 | x8 | z2 E<E E>E z G | [CE][EG] E<E E>E E2 | z2 G<G G>G z d | %11
 [Ec][Ge] ^F<F F>F G2 | x8 | x8 | x8 | x8 | x8 |] %17
V:3
 x8 | x8 | x8 | x8 | x8 | x8 | x8 | x8 | z4 z2 E2 | x8 | z4 z2 G2 | x8 | x8 | x8 | x8 | x8 | x8 |] %17
V:4
 [C,G,][C,G,][C,C][C,C] [C,C][C,C] [C,C]2 | [C,C][C,C][F,C][F,C] [F,C][F,C] [C,C]2 | %2
 [C,G,][C,G,][C,C][C,C] [C,C][C,C][C,C][E,C] | [D,G,][C,C] [G,B,]6 | %4
 [G,C][G,B,][K:treble]CC [G,B,][G,B,] C2 | [C,C][E,C][F,A,][F,A,] [F,A,][F,C] [C,C]2 | %6
 [C,C][C,C] [F,C]<[F,C] [E,C][G,B,] C<C | [G,B,]>G, [C,G,]6 | %8
 z2 [C,G,]<[C,G,] [C,G,]>[C,G,] [C,G,]2 | [C,G,][C,G,] [C,G,]<[C,G,] [C,G,]>[C,G,] [C,G,]2 | %10
 z2[K:treble] C<C C>C C2 | CC[K:bass] [A,C]<[A,C] [D,A,]>[D,C] [G,B,]2 | %12
 z2 [G,C][G,B,] CC[G,B,][G,B,] | C2 [C,C][E,C] [F,A,][F,A,][F,A,][F,C] | %14
 [C,C]2 [C,C][C,C] [F,C]<[F,C] [E,C][G,B,] | C<C [G,B,]>G, [C,G,]4- | [C,G,]4 z4 |] %17

